X:24
T: ES WAREN ZWEI KOENIGSKINDER
N: Z0025
O: Europa, Mitteleuropa, Deutschland
R: Sagen - Lied, Romanze, Tod; +++ 265 nach Gehr gendert. +++
M: 2/4
L: 1/32
K: G
D4 | D2B2B2B2A4A4 | G4G4z4
D4 | D2c2c2c2c2B2d2B2 | A8z4
D4 | D2d2d2d2d2c2c2z2 | B6g2d2c2
B2A2 | G4G2G2A4A3B | G4z4
A6c2 | B2g2d2B2A4B4 | G8z4

@@@ Tune index: 9782
